X: 2088
T: Athens Taxi Ride, The
R: reel
M: 4/4
K: Amajor
|Bc c2 BA (3FGA|EFAE FA A2|Bc c2 BA (3FGA|cAec BE (3FGA|
Bc c2 BA (3FGA|EFAE FA A2|ABce Ac c2|ecBd cA A2||
cAed ce e2|df f2 ce e2|cAed ce e2|decd BE (3FGA|
cAed ce e2|df f2 ce e2|EFAB ce e2|ecBd cA A2||

